X:0756
T:Stumpie Strathspey.
M:C
L:1/8
Q:1/4=120
I: :: :|
Z:Jack Campin * www.campin.me.uk * 2009
K:G
G|B`dg2     a/g/f/e/ g2    |Bd g2     a`AA`c|B`dg2     a/g/f/e/ g2    |BdAc B(GG):|
c|B(dd)c/B/ c(e``````e)d/c/|B(dd)c/B/ e(AA)c|B(dd)c/B/ c(e``````e)d/c/|BgBc B(GG):|
<end>
<start>
